X:20
T:Liti Kjersti (3)
R:
C:Trad
H:
B:Folque p.10
D:
O:Norge - Norway - Norvge
A:
Z:<anamnese@laposte.net> -- http://anamnese.fr.st
M:C
L:1/4
Q:1/4=120
K:F
DD/D/ ^CC/C/ | D D/E/ Fz | E2 DD | CEHF>F |
E E/E/ GG/G/ | FF HE>E | (E/D/)D/D/ ^C A,/C/ | D2 DZ |]
